X: 31445
T: Paddy Taylor's
R: reel
M: 4/4
K: Amixolydian
BAeA BAeA|BAeA dBGA|Be3 dzed|BG3 BcdB|
cA3 fAeA|A2eA dBGA|Be3 dzed|BG3 BcdB|
A2ce a3f|gfed ea3|A2(3B=cd g3e|dG3 B^cdB|
A2ce a3f|gfed ea3|g3e (3efg fe|dBGA BAAG|

